X: 1
T: Good Humour
T: Miss Campbell's Reel
R: reel
Z: 2011 John Chambers <jc:trillian.mit.edu>
S: print MS from Mike Briggs
M: C|
L: 1/8
K: G
D2 |\
"G"G2G2 BAGB | d2d2 dcBc | d2g2 "C"f2e2 | "G"d6 D2- |\
"D"D2D2 FEDF | A2A2 AGFG | "D7"A2c2 A2F2 | "G"GDEF "D7"GABc |
"G"d3B B2B2 | "D7"c3A A2A2 | "G"d3B G2G2 | "D7"A6 D2 |\
"G"d3B "Em"G2G2 | "Am"c3A "D7"F2F2 | "G"G2B2 "D7"A2F2 | "G"G6 |]
